!!!CDT:
!!!PTL: Il settimo libro de madrigali a cinque voci
!!!PPP: Venice
!!!PPR: Giacomo Vincenzi
!!!PDT: 1604
!!!PUB-format:
!!!RISM: L 3130
!!!rime: 378
!!!AGN: Madrigal
!!!SCT: Trm0378h
!!!SCA: Trm0378h
!!!original-voices: 5
!!!extant-voices: 2
!!!complete: N
!!!final: (E)(C)A
!!!COM: Luzzaschi, Luzzasco
!!!OTL: Nel dolce seno de la bella Clori
**kern	**text	**kern	**text
*part2	*part2	*part1	*part1
*staff2	*staff2	*staff1	*staff1
*I"Basso	*	*I"Canto	*
*I'B	*	*I'C	*
*oclefF4	*	*oclefC1	*
*clefF4	*	*clefG2	*
*k[]	*	*k[]	*
*C:	*	*C:	*
*omet(C|)	*	*omet(C|)	*
*M2/1	*	*M2/1	*
=1	=1	=1	=1
!!LO:TX:a:t=[Prima Parte.]
1AA	Nel	0r	.
2.E	dol-	.	.
4E	-ce	.	.
=2	=2	=2	=2
2E	sen	0r	.
2D	de	.	.
2C	la	.	.
2G	sua	.	.
=3	=3	=3	=3
4F	bel-	0r	.
4F	-la	.	.
2D	Clo-	.	.
2C	-ri	.	.
[2C	Tir-	.	.
=4	=4	=4	=4
2C]	.	1cc	Tir-
2C	-si,	.	.
1GG	che	1b	-si,
=5	=5	=5	=5
2D	del	2r	.
2D	suo	2dd	che
1AA	fi-	2cc	del
.	.	2a	suo
=6	=6	=6	=6
1E	-ne	1b	fi-
2BB	Già	2b	-ne
2BB	lan-	2b	Già
=7	=7	=7	=7
1.BB	-guen-	2f#X	lan-
.	.	1f#X	-guen-
[2E	-do	2g	-do
=8	=8	=8	=8
2E]	.	2g	sen-
2AA	sen-	1e	-tìa
2E	-tìa	.	.
2r	.	4r	.
.	.	[4a	l'ho-
=9	=9	=9	=9
2r	.	4a]	.
.	.	4g#X	-re
4r	.	2a	vi-
2AA	l'ho-	.	.
.	.	1e	-ci-
4GG#X	-re	.	.
2AA	vi-	.	.
=10	=10	=10	=10
2E	-ci-	1e	-ne,
2E	-ne,	.	.
2r	.	2r	.
[2AA	Fi-	[2e	Fi-
=11	=11	=11	=11
2AA]	.	2e]	.
2AA	-si	2e	-si
2AA	te-	2e	te-
[2AA	-nen-	[2e	-nen-
=12	=12	=12	=12
2AA]	.	2e]	.
2D	-do	2f#X	-do
1C	gl'oc-	1g	gl'oc-
=13	=13	=13	=13
1C	-chi,	1g	-chi
1r	.	2r	.
.	.	2g#X	Ne'
=14	=14	=14	=14
0r	.	2g#i	lan-
.	.	2g#i	-gui-
.	.	2a	-det-
.	.	2b	-ti
=15	=15	=15	=15
0r	.	2cc	rai
.	.	2a	del
.	.	2cc	suo
.	.	[2b	de-
=16	=16	=16	=16
0r	.	2b]	.
.	.	1a	-sì-
.	.	2g#i	-o,
=17	=17	=17	=17
1r	.	1a	.
2r	.	1r	.
[2AA	<Fi-	.	.
=18	=18	=18	=18
2AA]	.	0r	.
2AA	-si	.	.
2AA	te-	.	.
[2AA	-nen-	.	.
=19	=19	=19	=19
2AA]	.	0r	.
2D	-do	.	.
1C	gl'oc-	.	.
=20	=20	=20	=20
1C	-chi>	0r	.
2r	.	.	.
2E	Ne'	.	.
=21	=21	=21	=21
2E	lan-	0r	.
2E	-gui-	.	.
2A	-det-	.	.
2G	-ti	.	.
=22	=22	=22	=22
1F	rai	0r	.
1E	del	.	.
=23	=23	=23	=23
2AA	suo	0r	.
2AA	de-	.	.
1E	-sì-	.	.
=24	=24	=24	=24
1AA	-o,	1r	.
2r	.	2r	.
[2D	"A-	[2f	"A-
=25	=25	=25	=25
4D]	.	4f]	.
4D	-ni-	4f	-ni-
2AA	-ma,"	2e	-ma,"
1F	dis-	1a	dis-
=26	=26	=26	=26
[0E	-se,	1g#X	-se,
.	.	1r	.
=27	=27	=27	=27
1E]	.	2r	.
.	.	2b	"hor-
1r	.	2.ee	-mai
.	.	4dd	be-
=28	=28	=28	=28
1r	.	2cc	-a-
.	.	2b	-ta
2r	.	2a	mo-
2E	"hor-	2g#X	-ri,
=29	=29	=29	=29
2A	-mai	2r	.
2G	be-	2e	hor-
2F	-a-	2a	-mai
2E	-ta	2gnXi	be-
=30	=30	=30	=30
*lig	*	*	*
1D	mo-	2f	-a-
.	.	2e	-ta
1AA	.	1d	mo-
*Xlig	*	*	*
=31	=31	=31	=31
0EEl	-ri."	0el	-ri."
=32||	=32||	=32||	=32||
!!LO:TX:a:t=Seconda Parte.
0r	.	2r	.
.	.	2cc	Quan-
.	.	2a	-d'el-
.	.	[2b-X	-la,
=33	=33	=33	=33
0r	.	2b-]	.
.	.	1a	"hoi-
.	.	2g	-mé!
=34	=34	=34	=34
0r	.	2f	ben
.	.	4e	mio,
.	.	4e	A-
.	.	2a	-spet-
.	.	4g	-ta,
.	.	4g	A-
=35	=35	=35	=35
0r	.	2cc	-spet-
.	.	2b	-ta,"
.	.	4r	.
.	.	2dd	so-
.	.	4cc	-spi-
=36	=36	=36	=36
0r	.	2b	-rò
.	.	1cc	dol-
.	.	2a	-ce a-
=37	=37	=37	=37
0r	.	2r	.
.	.	2g	-ne-
.	.	2r	.
.	.	[2cc	-lan-
=38	=38	=38	=38
1r	.	2cc]	.
.	.	2b	-do.
2r	.	2r	.
2C	"Ah!	[2ee	"Ah!
=39	=39	=39	=39
1F	cru-	2ee]	.
.	.	1dd	cru-
1G	-do, ir	.	.
.	.	2cc	-do, ir
=40	=40	=40	=40
2G	dun-	2b	dun-
2A	-que a	2a	-que a
1E	mor-	1g	mor-
=41	=41	=41	=41
2C#X	-te	2e	-te
2.D	sen-	2.f	sen-
4D	-za	4f	-za
2E	me	2e	me
=42	=42	=42	=42
1F	pen-	2.c	pen-
.	.	4d	.
1E	-si?	2e	.
.	.	2e	-si?
=43	=43	=43	=43
4r	.	2r	.
4AA	io	.	.
2E	te-	4r	.
.	.	4b	io
2AA	-co,	2cc	te-
4r	.	2b	-co, e
4E	e	.	.
=44	=44	=44	=44
2BB	non	2dd	non
2C	men	2cc	men
1G	pen-	1b	pen-
=45	=45	=45	=45
1G	-to,	1b	-to,
2E	Mo-	2cc	Mo-
[2F	-rir	2a	-rir
=46	=46	=46	=46
2F]	.	2a	pro-
2C	pro-	2.cc	-mi-
1GG	-mi-	.	.
.	.	8bL	.
.	.	8aJ	.
.	.	2b	.
=47	=47	=47	=47
1C	-si,	1cc	-si,
1r	.	2r	.
.	.	2cc	e
=48	=48	=48	=48
2A	e	1cc	già
1A	già	.	.
.	.	[1c	mo-
[2AA	mo-	.	.
=49	=49	=49	=49
2AA]	.	1c]	.
2AA	-ro,	.	.
1r	.	1B	-ro,
=50	=50	=50	=50
0r	.	2r	.
.	.	2e	e
.	.	2f#X	già
.	.	[2g	sen-
=51	=51	=51	=51
0r	.	2g]	.
.	.	2a	-to
.	.	2g	Le
.	.	2a	mor-
=52	=52	=52	=52
0r	.	1d	-ta-
.	.	2d	-li
.	.	2c	mie
=53	=53	=53	=53
0r	.	1f	scor-
.	.	2e	-te
.	.	4r	.
.	.	4e	Per-
=54	=54	=54	=54
0r	.	2a	-ché
.	.	2g	l'u-
.	.	2cc	-na e
.	.	2b	l'al-
=55	=55	=55	=55
4r	.	2a	-tra al-
4AA	Per-	.	.
2E	-ché	2b	-ma,
2C	l'u-	2r	.
2G	-na e	4r	.
.	.	4e	<Per-
=56	=56	=56	=56
2F	l'al-	2a	-ché
2E	-tra al-	2g	l'u-
2AA	-ma,	2cc	-na e
2r	.	2b	l'al-
=57	=57	=57	=57
4r	.	2a	-tra al-
4AA	<Per-	.	.
2E	-ché	2b	-ma
2C	l'u-	1r	.
2G	-na e	.	.
=58	=58	=58	=58
1F	l'al-	1r	.
2E	-tra al-	2r	.
2A	-ma in-	2a	in-
=59	=59	=59	=59
0D	-sie-	0a	-sie-
=60	=60	=60	=60
1G	-me,	1b	-me,
2r	.	2r	.
2E	in-	2ee	in-
=61	=61	=61	=61
2D	-sie-	2a	-sie-
2G	-me	2b	-me
1C	scoc-	1cc	scoc-
=62	=62	=62	=62
0C	-chi."	0cc	-chi."
=63||	=63||	=63||	=63||
!!LO:TX:a:t=Terza Parte.
0r	.	2r	.
.	.	2.a	La
.	.	2g	strin-
.	.	4f	-ge e-
=64	=64	=64	=64
1r	.	4f	-gli
.	.	4d	so-
.	.	2e	-a-
4r	.	4e	-ve,
4A	La	2cc	La
2G	strin-	.	.
.	.	[4b	strin-
=65	=65	=65	=65
2F	-ge e-	4b]	.
.	.	2a	-ge e-
2F	-gli	.	.
.	.	4a	-gli
2D	so-	4b	so-
.	.	2a	-a-
2E	-a-	.	.
.	.	4g#X	.
=66	=66	=66	=66
2AA	-ve	1a	-ve
4r	.	.	.
4AA	e	.	.
2D	sol	1r	.
2GG	ri-	.	.
=67	=67	=67	=67
1C	-spon-	0r	.
2C	-de	.	.
2AA	Con	.	.
=68	=68	=68	=68
2AA	me-	0r	.
2GG#X	-ste	.	.
1AA	vo-	.	.
=69	=69	=69	=69
2BB	-ci	2r	.
2r	.	4r	.
.	.	4b	a
1r	.	4a	le
.	.	4.g	vo-
.	.	8g	-ci
.	.	4e	gio-
=70	=70	=70	=70
1r	.	2g	-con-
.	.	2g	-de,
4r	.	4r	.
4E	a	4g#X	a
4D	le	4a	le
[4G	vo-	[4b	vo-
=71	=71	=71	=71
8G]	.	8b]	.
8G	-ci	8b	-ci
4A	gio-	4cc	gio-
2G	-con-	2b	-con-
1C	-de.	1cc	-de.
=72	=72	=72	=72
2r	.	1r	.
1c	O	.	.
.	.	1cc	O
[2F	for-	.	.
=73	=73	=73	=73
2F]	.	2cc	for-
2F	-tu-	2dd	-tu-
2E	-na-	2ee	-na-
2E	-ti!	2ee	-ti!
=74	=74	=74	=74
2D	l'un	4a	l'un
.	.	2dd	en-
2G	en-	.	.
.	.	2b	-tro
4E	-tro	.	.
4A	spi-	4a	spi-
2E	-ran-	2b	-ran-
=75	=75	=75	=75
2AA	-do	2cc#X	-do
4D	Ne	4dd	Ne
4D	la	4dd	la
2D	boc-	2dd	boc-
4G	-ca	4b	-ca
4A	de	4a	de
=76	=76	=76	=76
2G	l'al-	2b	l'al-
2G	-tro, u-	2dd	-tro, u-
2D	-na	2dd	-na
2D	dol-	2a	dol-
=77	=77	=77	=77
1AA	-ce om-	1cc	-ce om-
2E	-bra	2b	-bra
2E	Di	2e	Di
=78	=78	=78	=78
1BB	mor-	1f#X	mor-
2E	-te	2g	-te
2AA	lor	2e	lor
=79	=79	=79	=79
4AA	gli oc-	4e	gli oc-
8AA	-chi	8e	-chi
8AA	tre-	8e	tre-
4D	-man-	4fnXi	-man-
4D	-ti in-	4d	-ti in-
1AA	-gom-	1a	-gom-
=80	=80	=80	=80
1E	-bra:	1g#X	-bra:
2r	.	1r	.
2A	E	.	.
=81	=81	=81	=81
2G	si	0r	.
1F	sen-	.	.
[2E	-ton	.	.
=82	=82	=82	=82
2E]	.	0r	.
2D	man-	.	.
*lig	*	*	*
1C	-can-	.	.
=83	=83	=83	=83
1BB	.	2r	.
*Xlig	*	*	*
.	.	2b	i
1AA	-do	2cc	rot-
.	.	2r	.
=84	=84	=84	=84
2r	.	2b	-ti ac-
2E	i	2r	.
2F	rot-	1a	-cen-
2r	.	.	.
=85	=85	=85	=85
2E	-ti ac-	1g	-ti,
2r	.	.	.
1A	-cen-	1r	.
=86	=86	=86	=86
1E	-ti,	0r	.
2r	.	.	.
4AA	Ag-	.	.
4AA	-ghiac-	.	.
=87	=87	=87	=87
1AA	-ciar	0r	.
2C	tra	.	.
2AA	le	.	.
=88	=88	=88	=88
1D	la-	0r	.
1C	-bra	.	.
=89	=89	=89	=89
0r	.	2r	.
.	.	4g	Ag-
.	.	4g	-ghiac-
.	.	1g	-ciar
=90	=90	=90	=90
0r	.	2g	tra
.	.	2g	le
.	.	2.e	la-
.	.	4f	-bra i
=91	=91	=91	=91
2r	.	2g	ba-
2GG	i	2g	.
[1G	ba-	4b	.
.	.	4a	.
.	.	4b	.
.	.	4cc	.
=92	=92	=92	=92
1G]	.	2.dd	.
.	.	8ccL	.
.	.	8bJ	.
[1F	-ci ar-	2a	.
.	.	2cc	-ci ar-
=93	=93	=93	=93
1F]	.	2.cc	-den-
.	.	8bL	.
.	.	8aJ	.
[1E	-den-	4cc	.
.	.	2b	.
.	.	[4a	.
=94	=94	=94	=94
1E]	.	4a]	.
.	.	8g#iL	.
.	.	8f#XJ	.
.	.	2g#i	.
1AA	-ti,	1a	-ti,
=95	=95	=95	=95
2r	.	0r	.
2A	E	.	.
2G	si	.	.
[2F	sen-	.	.
=96	=96	=96	=96
2F]	.	0r	.
1E	-ton	.	.
2D	man-	.	.
=97	=97	=97	=97
*lig	*	*	*
1C	-can-	1r	.
1BB	.	2r	.
*Xlig	*	*	*
.	.	2b	i
=98	=98	=98	=98
1AA	-do	2cc	rot-
.	.	2r	.
2r	.	2b	-ti ac-
2E	i	2r	.
=99	=99	=99	=99
2F	rot-	1a	-cen-
2r	.	.	.
2E	-ti ac-	1g	-ti
2r	.	.	.
=100	=100	=100	=100
1A	-cen-	0r	.
1E	-ti	.	.
=101	=101	=101	=101
2r	.	0r	.
4AA	Ag-	.	.
4AA	-ghiac-	.	.
1AA	-ciar	.	.
=102	=102	=102	=102
2C	tra	0r	.
2AA	le	.	.
1D	la-	.	.
=103	=103	=103	=103
1C	-bra	1r	.
1r	.	2r	.
.	.	4g	Ag-
.	.	4g	-ghiac-
=104	=104	=104	=104
0r	.	1g	-ciar
.	.	2g	tra
.	.	2g	le
=105	=105	=105	=105
1r	.	2.e	la-
.	.	4f	-bra i
2r	.	2g	ba-
2GG	i	2g	.
=106	=106	=106	=106
0G	ba-	4b	.
.	.	4a	.
.	.	4b	.
.	.	4cc	.
.	.	2.dd	.
.	.	8ccL	.
.	.	8bJ	.
=107	=107	=107	=107
0F	-ci ar-	2a	.
.	.	2cc	-ci ar-
.	.	2.cc	-den-
.	.	8bL	.
.	.	8aJ	.
=108	=108	=108	=108
0E	-den-	4cc	.
.	.	2b	.
.	.	2a	.
.	.	8g#iL	.
.	.	8f#XJ	.
.	.	2g#i	.
=109	=109	=109	=109
0AAl	-ti.	0al	-ti.
==	==	==	==
*-	*-	*-	*-
!!!system-decoration: [*]
!!!RDF**kern: i = editorial accidental
!!!RDF**kern: l = terminal long
!!!ENC: Emiliano Ricciardi
!!!END: 2019
!!!EED: Ricciardi, Emiliano
!!!EEV: 2019/02/22
!!!YEC: Copyright 2018 Emiliano Ricciardi, All Rights Reserved
!!!ONB: Translated from MusicXML on 2019/02/22 and edited by Craig Stuart Sapp
!!@@BEGIN:	VERSEDATA
!!@SOLERTI:	378
!!@CATALOGNUM:	Trm0378
!!@LAST_MODIFIED: 2020/07/12
!!@TITLE:		Nel dolce seno de la bella Clori
!!@GENRE:		madrigale
!!@MANUSRC:	none
!!@PRINTSRC:	23, 26, 32, 36, 37, 69, 141, 166, 169
!!@@BEGIN:	VERSES
!!@ABOUTIT:
!!@ABOUTEN:
!!@EDITOR:	Solerti, Angelo
!!@EDITION_TITLE: Le Rime di Torquato Tasso
!!@EDITION_LOC:	Bologna
!!@EDITION_PUB:	Romagnoli-Dall’Acqua
!!@EDITION_DATE:  1898-1902
!!@EDITION_VOL:	2
!!@EDITION_PAGE:  413
!!@TRANSLATOR:	Anthony Newcomb; adapted by Emiliano Ricciardi and Amyrose McCue Gill
!!@VERSE:
!!	Nel dolce seno de la bella Clori
!!	Tirsi, che del suo fine
!!	Già languendo sentìa l'ore vicine,
!!	Tirsi, levando gli occhi
!!	Ne' languidetti rai del suo desìo, &mdash;
!!	Anima disse, omai beata mori. &mdash;
!!	Quand'ella &mdash; Ohimè! ben mio,
!!	Aspetta, &mdash; sospirò dolce anelando. &mdash;
!!	Ahi! crudo, ir dunque a morte
!!	Senza me pensi? io teco, e non me 'n pento,
!!	Morir promisi, e già moro, e già sento
!!	Le mortali mie scorte
!!	Perché l'una e l'altr'alma insieme scocchi. &mdash;
!!	Si stringe egli soave e sol risponde
!!	Con meste voci a le voci gioconde.
!!	Oh fortunati! L'un entro spirando
!!	Ne la bocca de l'altra, una dolce ombra
!!	Di morte gli occhi lor tremanti ingombra;
!!	E si sentian, mancando i rotti accenti,
!!	Agghiacciar tra le labbra i baci ardenti.
!!@TVERSE:
!!	Upon the sweet breast of his beautiful Chloris,
!!	Thrysis, who the hour of his death,
!!	Already swooning, felt drawing near,
!!	Thrysis, raising his eyes
!!	To the softly swooning eyes of his desire, &mdash;
!!	Soul, &mdash; he said, &mdash; now you die blessed. &mdash;
!!	When she: &mdash; Ah me! My love,
!!	Wait &mdash; sighed, sweetly panting: &mdash;
!!	Ah, pitiless one, to death, therefore,
!!	You think to go without me? I, with you, and I do not regret it,
!!	Promised to die, and already I die, and already I feel
!!	My heralds of death,
!!	So that the one and the other soul may fly forth together. &mdash;
!!	He grasps her [with] pleasure and answers only
!!	With melancholy utterances her joyful utterances.
!!	O fortunate ones! The one exhaling
!!	Into the mouth of the other, a sweet shadow
!!	Of death their trembling eyes dims,
!!	And they feel, their broken words vanishing,
!!	Turning chill on their lips, their passionate kisses.
!!@@END:		VERSES
!!@OTHER_CRIT_ED:   None
!!@ATTRIBUTION_ABOUT:	Secure
!!		<br>
!!		Although this poem is attributed to Tasso only in a 1585 literary print that was not authorized by the author and in reprints thereof (see Literary Sources), its similarities with "Tirsi morir volea" of Battista Guarini, a poet with whom Tasso often engaged in competition by way of <i>proposte</i> and <i>risposte</i>, and its several settings by Ferrarese composers (see Musical Settings) strongly support Tassian autorship.
!!@DATING:	1570s?
!!@DEDICATEE:
!!@COMMENTARY:
!!@@END:		VERSEDATA
!!@@BEGIN:	SETTING
!!@CATALOGNUM:	Trm0378h
!!@RIMETITLE:	Nel dolce seno de la bella Clori
!!@SOLERTI:	378
!!@COMPOSER:	Luzzaschi, Luzzasco
!!@PRINCEPSTITLE:	Il settimo libro de madrigali a cinque voci
!!@PRINCEPSLOC:	Venetia
!!@NORMLOC:	Venice
!!@NORMPUB:	Giacomo Vincenzi
!!@NORMPUBSHORT:	G. Vincenzi
!!@PRINCEPSPUB:	Vincenti
!!@PRINCEPSYEAR:	1604
!!@PRINCEPSRISM:	L 3130
!!@REPRINTS:	
!!@OVOICES:	5
!!@EXTANTVOICES:	2
!!@PARTBOOKS:	
!!@EXTPARTBOOKS:	
!!@OCLEFS:	C1,F4
!!@OMENSURATION:	Cut-C
!!@OKEYSIG:	-
!!@FINAL:	(E)(C)A
!!@TIMPEDITOR:	Ricciardi, Emiliano
!!@NOTE:		
!!@@END:		SETTING
